X: 1
T: Camel Hump
C: Danny Noveck
S: Tab at alltabs.com by Mike Stangeland
M: C|
L: 1/8
Z: Contributed 20050128162227 by John Chambers jc1742:gmail.com
K: Em
|: "Em"E2BE GB B/B/B | cBAG B3B | "D"Addc ABcB | AGFG A/B/A GF |
|  "Em"E2BE GB B/B/B | cBAG B3B | "D"Addc ABcB |1 AGFA "Em"GEB,D :|2 "D"AGFA "Em"GABd ||
|: "Em"edBA B2GB | edBe "D"d3d  | dBAB d2AF | d2AF dBAF |
|  "Em"E2BE GB B/B/B | cBAG "D"ADFA | dedc ABcB |1 AGFA "Em"GABd :|2 "D"A/B/A GF "Em"E2z2 :|
